!!!OTL: ES WOLLT EIN MAEGDLEIN FRUEH AUFSTEHN
!!!ARE: Europa, Mitteleuropa, Deutschland, Kleve; Bayern
!!!SCT: E0121C
!!!YEM: Copyright 1995, estate of Helmut Schaffrath.
**kern
*ICvox
*Ivox
*M2/4
*k[f#]
*G:
{8d
=1
8g
8g
8f#
8a
=2
8g
16f#
16e
8d}
{8d
=3
8g
8g
8a
8dd
=4
4b
8r}
{8g
=5
8.b
16a
8b
16b
16dd
=6
8cc
8b
4a}
=7
{8a
8a
8a
8dd
=8
8b
8a
8g}
{8a
=9
8b
8b
8a
8a
=10
4g
8r}
==
!!!AGN: erzaehlendes Volks - Lied, Schalk -, Schelmen - Lied, Liebe     Ballade ?
!!!ONB: ESAC (Essen Associative Code) Database: ERK1
!!!AMT: simple duple
!!!AIN: vox
!!!EED: Helmut Schaffrath
!!!EEV: 1.0
*-
!!!title: @{OTL} [@{SCT}]
